X: 122
T:Gooseberry Bush, The
M:C|
L:1/8
R:Reel
K:D
ADFD EFGB|AGAB =c2AG|AB=cA d=cAG|FGAF GBAF|!
DEFD "var."EFGE|AB=cA dfeg|fddc dfed|=cAGE EDDB:|!
|:Adde fded|~=c3d cAGB|ABAF GE~E2|FGAB =cdBc|!
Ad~d2 fded|~=c3d cAGB|AB=cA dcAG|AB=cA d2d^c:|!
|:Adde fdcd|efge aged|cdef g2ef|~g3e dcAd|!
d2cd GBAG|FGAB =c2AG|AB=cA dcAG|1AB=cA d2d^c:|2AB=cA d2dB|]!
